X: 54
T:Gelding of the Devil
M:6/8
L:1/8
K:C
A|E2 E A2 A|B2 G c2 c|d>ec B2 A|^G>^FG A2 A|E2 E A2 A|B2 G c2 c| d>ec B2 A|^G>^FG A2:|
|:A| ^G>^FG A>GA| B>AB c2 c|d>ec B2 A| ^G>^FG A2 A| ^G>^FG  A>GA|B/2A/2 c2 c| d>ec B2 A| ^G>^F A3:|

